assets/images/svgs/like-heart.svg

<svg width="22" height="20" viewBox="0 0 22 20" fill="none" xmlns="http://www.w3.org/2000/svg">
<path d="M11 3.49999L10.46 4.01999C10.53 4.09257 10.6138 4.15031 10.7066 4.18974C10.7994 4.22918 10.8992 4.24951 11 4.24951C11.1008 4.24951 11.2006 4.22918 11.2934 4.18974C11.3862 4.15031 11.47 4.09257 11.54 4.01999L11 3.49999ZM6.001 14.42C5.84717 14.2935 5.64939 14.2333 5.45117 14.2526C5.25294 14.2719 5.07051 14.3692 4.944 14.523C4.81749 14.6768 4.75727 14.8746 4.77659 15.0728C4.7959 15.271 4.89317 15.4535 5.047 15.58L6.001 14.42ZM1.342 11.411C1.38928 11.4974 1.45311 11.5736 1.52985 11.6354C1.6066 11.6971 1.69475 11.7431 1.78928 11.7708C1.88381 11.7985 1.98287 11.8073 2.08079 11.7967C2.17871 11.7861 2.27359 11.7563 2.36 11.709C2.44641 11.6617 2.52266 11.5979 2.5844 11.5211C2.64614 11.4444 2.69216 11.3562 2.71983 11.2617C2.74751 11.1672 2.75629 11.0681 2.74568 10.9702C2.73507 10.8723 2.70528 10.7774 2.658 10.691L1.342 11.411ZM1.75 7.13699C1.75 4.98699 2.965 3.18299 4.624 2.42399C6.236 1.68699 8.402 1.88199 10.46 4.01999L11.54 2.98099C9.1 0.443986 6.264 0.0249861 4 1.05999C1.786 2.07299 0.25 4.42499 0.25 7.13699H1.75ZM7.497 17.5C8.01 17.904 8.56 18.334 9.117 18.66C9.674 18.985 10.31 19.25 11 19.25V17.75C10.69 17.75 10.326 17.63 9.874 17.365C9.421 17.101 8.952 16.737 8.426 16.322L7.497 17.5ZM14.503 17.5C15.929 16.375 17.753 15.087 19.183 13.476C20.64 11.836 21.75 9.80299 21.75 7.13699H20.25C20.25 9.33499 19.35 11.028 18.062 12.48C16.747 13.96 15.09 15.127 13.574 16.322L14.503 17.5ZM21.75 7.13699C21.75 4.42499 20.215 2.07299 18 1.05999C15.736 0.0249861 12.902 0.443986 10.46 2.97999L11.54 4.01999C13.598 1.88299 15.764 1.68699 17.376 2.42399C19.035 3.18299 20.25 4.98599 20.25 7.13699H21.75ZM13.574 16.322C13.048 16.737 12.579 17.101 12.126 17.365C11.674 17.629 11.31 17.75 11 17.75V19.25C11.69 19.25 12.326 18.985 12.883 18.66C13.441 18.334 13.99 17.904 14.503 17.5L13.574 16.322ZM8.426 16.322C7.63 15.695 6.821 15.095 6.001 14.42L5.047 15.58C5.877 16.263 6.755 16.915 7.497 17.5L8.426 16.322ZM2.658 10.692C2.05561 9.60441 1.74293 8.38023 1.75 7.13699H0.25C0.25 8.77499 0.67 10.182 1.342 11.411L2.658 10.692Z" fill="#FF669F"/>
</svg>

<svg xmlns="http://www.w3.org/2000/svg" width="22" height="20" fill="none" xmlns:v="https://vecta.io/nano"><path d="M11 3.5l-.54.52a.75.75 0 0 0 .54.23.75.75 0 0 0 .54-.23L11 3.5zM6.001 14.42a.75.75 0 0 0-1.057.103.75.75 0 0 0 .103 1.057l.954-1.16zm-4.659-3.009a.75.75 0 0 0 .447.36.75.75 0 0 0 .571-.062.75.75 0 0 0 .36-.447.75.75 0 0 0-.062-.571l-1.316.72zm.408-4.274c0-2.15 1.215-3.954 2.874-4.713 1.612-.737 3.778-.542 5.836 1.596l1.08-1.039C9.1.444 6.264.025 4 1.06 1.786 2.073.25 4.425.25 7.137h1.5zM7.497 17.5l1.62 1.16c.557.325 1.193.59 1.883.59v-1.5c-.31 0-.674-.12-1.126-.385s-.922-.628-1.448-1.043L7.497 17.5zm7.006 0c1.426-1.125 3.25-2.413 4.68-4.024 1.457-1.64 2.567-3.673 2.567-6.339h-1.5c0 2.198-.9 3.891-2.188 5.343-1.315 1.48-2.972 2.647-4.488 3.842l.929 1.178zM21.75 7.137c0-2.712-1.535-5.064-3.75-6.077-2.264-1.035-5.098-.616-7.54 1.92l1.08 1.04c2.058-2.137 4.224-2.333 5.836-1.596 1.659.759 2.874 2.562 2.874 4.713h1.5zm-8.176 9.185l-1.448 1.043c-.452.264-.816.385-1.126.385v1.5c.69 0 1.326-.265 1.883-.59s1.107-.756 1.62-1.16l-.929-1.178zm-5.148 0L6.001 14.42l-.954 1.16 2.45 1.92.929-1.178zm-5.768-5.63a7.25 7.25 0 0 1-.908-3.555H.25a8.75 8.75 0 0 0 1.092 4.274l1.316-.719z" fill="#ff669f"/></svg>
